local/share/icons/dracula-icons-main/scalable/apps/file-roller.svg

<?xml version="1.0" encoding="UTF-8"?>
<svg xmlns="http://www.w3.org/2000/svg" xmlns:xlink="http://www.w3.org/1999/xlink" width="64" height="64" viewBox="0 0 64 64">
<defs>
<filter id="filter-remove-color" x="0%" y="0%" width="100%" height="100%">
<feColorMatrix color-interpolation-filters="sRGB" values="0 0 0 0 1 0 0 0 0 1 0 0 0 0 1 0 0 0 1 0" />
</filter>
<mask id="mask-0">
<g filter="url(#filter-remove-color)">
<rect x="-6.4" y="-6.4" width="76.8" height="76.8" fill="rgb(0%, 0%, 0%)" fill-opacity="0.35"/>
</g>
</mask>
<clipPath id="clip-0">
<rect x="0" y="0" width="17" height="17"/>
</clipPath>
<g id="source-889" clip-path="url(#clip-0)">
<path fill-rule="nonzero" fill="rgb(0%, 0%, 0%)" fill-opacity="1" d="M 8.464844 1.324219 C 8.378906 1.324219 8.289062 1.328125 8.203125 1.332031 L 8.203125 6.746094 L 8.730469 6.746094 L 8.730469 1.335938 C 8.644531 1.332031 8.554688 1.324219 8.464844 1.324219 Z M 8.464844 1.324219 "/>
</g>
</defs>
<path fill-rule="nonzero" fill="rgb(54.509804%, 76.470588%, 29.019608%)" fill-opacity="1" d="M 15.609375 8.464844 C 15.609375 12.410156 12.410156 15.609375 8.464844 15.609375 C 4.519531 15.609375 1.324219 12.410156 1.324219 8.464844 C 1.324219 4.519531 4.519531 1.324219 8.464844 1.324219 C 12.410156 1.324219 15.609375 4.519531 15.609375 8.464844 Z M 15.609375 8.464844 "/>
<g mask="url(#mask-0)">
<use xlink:href="#source-889"/>
</g>
<path fill-rule="nonzero" fill="rgb(100%, 100%, 100%)" fill-opacity="1" d="M 8.46875 6.351562 C 7.882812 6.351562 7.410156 6.824219 7.40625 7.40625 L 7.40625 9.523438 C 7.410156 10.109375 7.882812 10.582031 8.46875 10.582031 C 9.050781 10.582031 9.523438 10.109375 9.523438 9.523438 L 9.523438 7.40625 C 9.523438 6.824219 9.050781 6.351562 8.46875 6.351562 Z M 8.46875 6.878906 C 8.757812 6.878906 8.996094 7.089844 8.996094 7.40625 C 8.996094 7.671875 8.757812 7.9375 8.464844 7.9375 C 8.175781 7.929688 7.945312 7.695312 7.9375 7.40625 C 7.9375 7.089844 8.175781 6.878906 8.46875 6.878906 Z M 8.46875 8.464844 C 8.757812 8.464844 8.996094 8.703125 8.996094 8.996094 L 8.996094 9.523438 C 8.984375 9.808594 8.75 10.03125 8.464844 10.03125 C 8.183594 10.03125 7.949219 9.808594 7.9375 9.523438 L 7.9375 8.996094 C 7.9375 8.703125 8.175781 8.464844 8.46875 8.464844 Z M 8.46875 8.464844 "/>
</svg>

<svg width="64" height="64" version="1.1" viewBox="0 0 16.933 16.933" xmlns="http://www.w3.org/2000/svg" xmlns:xlink="http://www.w3.org/1999/xlink">
 <circle cx="8.4665" cy="8.4665" r="7.1436" fill="#8bc34a" style="paint-order:stroke fill markers"/>
 <path d="m8.4666 1.3229a7.1437 7.1437 0 0 0-0.26458 0.0093016v5.4141h0.52916v-5.4099a7.1437 7.1437 0 0 0-0.26458-0.013436z" opacity=".35" stroke-width="1.0624" style="paint-order:markers stroke fill"/>
 <path d="m8.467 6.35a1.06 1.06 0 0 0-1.059 1.058v2.117a1.06 1.06 0 0 0 1.059 1.058 1.06 1.06 0 0 0 1.058-1.058v-2.117a1.06 1.06 0 0 0-1.058-1.058zm0 0.529c0.292 0 0.529 0.211 0.529 0.529 0 0.265-0.237 0.53-0.53 0.53a0.548 0.548 0 0 1-0.529-0.53c0-0.318 0.238-0.53 0.53-0.53zm0 1.587a0.53 0.53 0 0 1 0.529 0.53v0.529a0.53 0.53 0 0 1-1.059 0v-0.53a0.53 0.53 0 0 1 0.53-0.529z" fill="#fff"/>
</svg>
